assets/1. 1-F/Ant/Color/Ant-color.svg

<svg width="100%" height="100%" viewBox="0 0 32 32" fill="none" xmlns="http://www.w3.org/2000/svg">
<path d="M15.08 15.5684V29.0584" stroke="url(#paint0_linear_28327_6347)" stroke-miterlimit="10" stroke-linecap="round" stroke-linejoin="round"/>
<path d="M15.53 15.5684L7.09998 29.0584" stroke="url(#paint1_linear_28327_6347)" stroke-miterlimit="10" stroke-linecap="round" stroke-linejoin="round"/>
<path d="M2 20.0684C3.79 18.2784 7.29 18.2784 9.09 20.0684L16.03 15.1084" stroke="url(#paint2_linear_28327_6347)" stroke-miterlimit="10" stroke-linecap="round" stroke-linejoin="round"/>
<g filter="url(#filter0_f_28327_6347)">
<path d="M2 20.0684C3.79 18.2784 7.29 18.2784 9.09 20.0684L16.03 15.1084" stroke="url(#paint3_linear_28327_6347)" stroke-width="0.25" stroke-miterlimit="10" stroke-linecap="round" stroke-linejoin="round"/>
</g>
<path d="M8.11 8.10854C8.11 4.72854 5.38 1.99854 2 1.99854" stroke="url(#paint4_linear_28327_6347)" stroke-miterlimit="10" stroke-linecap="round" stroke-linejoin="round"/>
<g filter="url(#filter1_f_28327_6347)">
<path d="M8.21938 8.10854C8.21938 4.72854 5.53906 1.98291 2.10156 1.88135" stroke="#6E6279" stroke-width="0.15" stroke-miterlimit="10" stroke-linecap="round" stroke-linejoin="round"/>
</g>
<path d="M13.56 13.0586C13.56 16.0986 11.1 16.5586 8.06 16.5586C5.02 16.5586 2.56 16.0986 2.56 13.0586C2.56 10.0186 5.02 7.55859 8.06 7.55859C11.1 7.55859 13.56 10.0186 13.56 13.0586Z" fill="url(#paint5_radial_28327_6347)"/>
<path d="M13.56 13.0586C13.56 16.0986 11.1 16.5586 8.06 16.5586C5.02 16.5586 2.56 16.0986 2.56 13.0586C2.56 10.0186 5.02 7.55859 8.06 7.55859C11.1 7.55859 13.56 10.0186 13.56 13.0586Z" fill="url(#paint6_radial_28327_6347)"/>
<path d="M13.56 13.0586C13.56 16.0986 11.1 16.5586 8.06 16.5586C5.02 16.5586 2.56 16.0986 2.56 13.0586C2.56 10.0186 5.02 7.55859 8.06 7.55859C11.1 7.55859 13.56 10.0186 13.56 13.0586Z" fill="url(#paint7_radial_28327_6347)"/>
<path d="M13.56 13.0586C13.56 16.0986 11.1 16.5586 8.06 16.5586C5.02 16.5586 2.56 16.0986 2.56 13.0586C2.56 10.0186 5.02 7.55859 8.06 7.55859C11.1 7.55859 13.56 10.0186 13.56 13.0586Z" fill="url(#paint8_radial_28327_6347)"/>
<path d="M13.56 13.0586C13.56 16.0986 11.1 16.5586 8.06 16.5586C5.02 16.5586 2.56 16.0986 2.56 13.0586C2.56 10.0186 5.02 7.55859 8.06 7.55859C11.1 7.55859 13.56 10.0186 13.56 13.0586Z" fill="url(#paint9_radial_28327_6347)"/>
<path d="M15.53 18.5886C17.1979 18.5886 18.55 17.2365 18.55 15.5686C18.55 13.9007 17.1979 12.5486 15.53 12.5486C13.8621 12.5486 12.51 13.9007 12.51 15.5686C12.51 17.2365 13.8621 18.5886 15.53 18.5886Z" fill="url(#paint10_radial_28327_6347)"/>
<path d="M15.53 18.5886C17.1979 18.5886 18.55 17.2365 18.55 15.5686C18.55 13.9007 17.1979 12.5486 15.53 12.5486C13.8621 12.5486 12.51 13.9007 12.51 15.5686C12.51 17.2365 13.8621 18.5886 15.53 18.5886Z" fill="url(#paint11_radial_28327_6347)"/>
<path d="M15.53 18.5886C17.1979 18.5886 18.55 17.2365 18.55 15.5686C18.55 13.9007 17.1979 12.5486 15.53 12.5486C13.8621 12.5486 12.51 13.9007 12.51 15.5686C12.51 17.2365 13.8621 18.5886 15.53 18.5886Z" fill="url(#paint12_radial_28327_6347)"/>
<path d="M15.53 18.5886C17.1979 18.5886 18.55 17.2365 18.55 15.5686C18.55 13.9007 17.1979 12.5486 15.53 12.5486C13.8621 12.5486 12.51 13.9007 12.51 15.5686C12.51 17.2365 13.8621 18.5886 15.53 18.5886Z" fill="url(#paint13_radial_28327_6347)"/>
<path d="M15.53 18.5886C17.1979 18.5886 18.55 17.2365 18.55 15.5686C18.55 13.9007 17.1979 12.5486 15.53 12.5486C13.8621 12.5486 12.51 13.9007 12.51 15.5686C12.51 17.2365 13.8621 18.5886 15.53 18.5886Z" fill="url(#paint14_radial_28327_6347)"/>
<path d="M21.96 29.5585C17.8 29.5585 17.56 26.1885 17.56 22.0285C17.56 17.8685 17.8 14.4985 21.96 14.4985C26.12 14.4985 29.49 17.8685 29.49 22.0285C29.49 26.1885 26.12 29.5585 21.96 29.5585Z" fill="url(#paint15_radial_28327_6347)"/>
<path d="M21.96 29.5585C17.8 29.5585 17.56 26.1885 17.56 22.0285C17.56 17.8685 17.8 14.4985 21.96 14.4985C26.12 14.4985 29.49 17.8685 29.49 22.0285C29.49 26.1885 26.12 29.5585 21.96 29.5585Z" fill="url(#paint16_radial_28327_6347)"/>
<path d="M21.96 29.5585C17.8 29.5585 17.56 26.1885 17.56 22.0285C17.56 17.8685 17.8 14.4985 21.96 14.4985C26.12 14.4985 29.49 17.8685 29.49 22.0285C29.49 26.1885 26.12 29.5585 21.96 29.5585Z" fill="url(#paint17_radial_28327_6347)"/>
<path d="M21.96 29.5585C17.8 29.5585 17.56 26.1885 17.56 22.0285C17.56 17.8685 17.8 14.4985 21.96 14.4985C26.12 14.4985 29.49 17.8685 29.49 22.0285C29.49 26.1885 26.12 29.5585 21.96 29.5585Z" fill="url(#paint18_radial_28327_6347)"/>
<g filter="url(#filter2_f_28327_6347)">
<circle cx="5.95063" cy="11.6905" r="0.570869" fill="#2E2239"/>
</g>
<circle cx="5.95062" cy="11.522" r="0.5" fill="url(#paint19_radial_28327_6347)"/>
<circle cx="5.95062" cy="11.522" r="0.5" fill="url(#paint20_radial_28327_6347)"/>
<circle cx="5.95062" cy="11.522" r="0.5" fill="url(#paint21_radial_28327_6347)"/>
<circle cx="5.95062" cy="11.522" r="0.5" fill="url(#paint22_linear_28327_6347)"/>
<g filter="url(#filter3_f_28327_6347)">
<path d="M13.7812 18.4673L7.15625 28.936" stroke="url(#paint23_linear_28327_6347)" stroke-width="0.25" stroke-miterlimit="10" stroke-linecap="round" stroke-linejoin="round"/>
</g>
<g filter="url(#filter4_f_28327_6347)">
<path d="M15.125 19.5298V28.8735" stroke="url(#paint24_linear_28327_6347)" stroke-width="0.25" stroke-miterlimit="10" stroke-linecap="round" stroke-linejoin="round"/>
</g>
<defs>
<filter id="filter0_f_28327_6347" x="1.625" y="14.7334" width="14.78" height="5.70996" filterUnits="userSpaceOnUse" color-interpolation-filters="sRGB">
<feFlood flood-opacity="0" result="BackgroundImageFix"/>
<feBlend mode="normal" in="SourceGraphic" in2="BackgroundImageFix" result="shape"/>
<feGaussianBlur stdDeviation="0.125" result="effect1_foregroundBlur_28327_6347"/>
</filter>
<filter id="filter1_f_28327_6347" x="1.72655" y="1.5064" width="6.86782" height="6.9772" filterUnits="userSpaceOnUse" color-interpolation-filters="sRGB">
<feFlood flood-opacity="0" result="BackgroundImageFix"/>
<feBlend mode="normal" in="SourceGraphic" in2="BackgroundImageFix" result="shape"/>
<feGaussianBlur stdDeviation="0.15" result="effect1_foregroundBlur_28327_6347"/>
</filter>
<filter id="filter2_f_28327_6347" x="4.97976" y="10.7196" width="1.94172" height="1.94185" filterUnits="userSpaceOnUse" color-interpolation-filters="sRGB">
<feFlood flood-opacity="0" result="BackgroundImageFix"/>
<feBlend mode="normal" in="SourceGraphic" in2="BackgroundImageFix" result="shape"/>
<feGaussianBlur stdDeviation="0.2" result="effect1_foregroundBlur_28327_6347"/>
</filter>
<filter id="filter3_f_28327_6347" x="6.78122" y="18.0923" width="7.37506" height="11.2188" filterUnits="userSpaceOnUse" color-interpolation-filters="sRGB">
<feFlood flood-opacity="0" result="BackgroundImageFix"/>
<feBlend mode="normal" in="SourceGraphic" in2="BackgroundImageFix" result="shape"/>
<feGaussianBlur stdDeviation="0.125" result="effect1_foregroundBlur_28327_6347"/>
</filter>
<filter id="filter4_f_28327_6347" x="14.75" y="19.1548" width="0.75" height="10.0938" filterUnits="userSpaceOnUse" color-interpolation-filters="sRGB">
<feFlood flood-opacity="0" result="BackgroundImageFix"/>
<feBlend mode="normal" in="SourceGraphic" in2="BackgroundImageFix" result="shape"/>
<feGaussianBlur stdDeviation="0.125" result="effect1_foregroundBlur_28327_6347"/>
</filter>
<linearGradient id="paint0_linear_28327_6347" x1="15.5938" y1="28.6548" x2="15.5938" y2="19.4673" gradientUnits="userSpaceOnUse">
<stop offset="0.00558659" stop-color="#513468"/>
<stop offset="1" stop-color="#1C1C1C"/>
</linearGradient>
<linearGradient id="paint1_linear_28327_6347" x1="6.59778" y1="22.3155" x2="16.027" y2="22.3155" gradientUnits="userSpaceOnUse">
<stop offset="0.00558659" stop-color="#513468"/>
<stop offset="1" stop-color="#1C1C1C"/>
</linearGradient>
<linearGradient id="paint2_linear_28327_6347" x1="1.5" y1="17.5911" x2="16.5245" y2="17.5911" gradientUnits="userSpaceOnUse">
<stop offset="0.00558659" stop-color="#513468"/>
<stop offset="1" stop-color="#1C1C1C"/>
</linearGradient>
<linearGradient id="paint3_linear_28327_6347" x1="12.6875" y1="16.7173" x2="2.65625" y2="19.9048" gradientUnits="userSpaceOnUse">
<stop stop-color="#4A454F" stop-opacity="0"/>
<stop offset="0.1826" stop-color="#4A454F"/>
<stop offset="1" stop-color="#544067"/>
</linearGradient>
<linearGradient id="paint4_linear_28327_6347" x1="7.8125" y1="7.77979" x2="2" y2="1.65479" gradientUnits="userSpaceOnUse">
<stop offset="0.00558659" stop-color="#433453"/>
<stop offset="1" stop-color="#2F2E30"/>
</linearGradient>
<radialGradient id="paint5_radial_28327_6347" cx="0" cy="0" r="1" gradientUnits="userSpaceOnUse" gradientTransform="translate(8.06 16.5586) rotate(-90) scale(7.43506 7.19)">
<stop stop-color="#37214A"/>
<stop offset="1" stop-color="#35303C"/>
</radialGradient>
<radialGradient id="paint6_radial_28327_6347" cx="0" cy="0" r="1" gradientUnits="userSpaceOnUse" gradientTransform="translate(2.21875 10.5923) rotate(29.3318) scale(3.76378 5.34466)">
<stop stop-color="#5B595E"/>
<stop offset="1" stop-color="#5B595E" stop-opacity="0"/>
</radialGradient>
<radialGradient id="paint7_radial_28327_6347" cx="0" cy="0" r="1" gradientUnits="userSpaceOnUse" gradientTransform="translate(11.9688 11.3735) rotate(180) scale(4.59375 2.875)">
<stop stop-color="#726D78"/>
<stop offset="1" stop-color="#726D78" stop-opacity="0"/>
</radialGradient>
<radialGradient id="paint8_radial_28327_6347" cx="0" cy="0" r="1" gradientUnits="userSpaceOnUse" gradientTransform="translate(13.3594 14.9985) rotate(-157.834) scale(1.82217 2.40902)">
<stop stop-color="#0C0811"/>
<stop offset="1" stop-color="#0C0811" stop-opacity="0"/>
</radialGradient>
<radialGradient id="paint9_radial_28327_6347" cx="0" cy="0" r="1" gradientUnits="userSpaceOnUse" gradientTransform="translate(9.375 6.21729) rotate(144.375) scale(3.5946 1.40174)">
<stop stop-color="#5C5564"/>
<stop offset="1" stop-color="#5C5564" stop-opacity="0"/>
</radialGradient>
<radialGradient id="paint10_radial_28327_6347" cx="0" cy="0" r="1" gradientUnits="userSpaceOnUse" gradientTransform="translate(15 17.9673) rotate(-75.1346) scale(5.2378 4.33473)">
<stop offset="0.00558659" stop-color="#351F47"/>
<stop offset="1" stop-color="#3B3442"/>
</radialGradient>
<radialGradient id="paint11_radial_28327_6347" cx="0" cy="0" r="1" gradientUnits="userSpaceOnUse" gradientTransform="translate(17.2344 15.1079) rotate(150.994) scale(1.80447 1.81191)">
<stop stop-color="#766F7E"/>
<stop offset="1" stop-color="#766F7E" stop-opacity="0"/>
</radialGradient>
<radialGradient id="paint12_radial_28327_6347" cx="0" cy="0" r="1" gradientUnits="userSpaceOnUse" gradientTransform="translate(12.7187 13.5298) rotate(71.1139) scale(3.13767 1.45057)">
<stop stop-color="#39363E"/>
<stop offset="1" stop-color="#39363E" stop-opacity="0"/>
</radialGradient>
<radialGradient id="paint13_radial_28327_6347" cx="0" cy="0" r="1" gradientUnits="userSpaceOnUse" gradientTransform="translate(18.8125 17.2329) rotate(-168.19) scale(1.75592 2.14147)">
<stop stop-color="#0C0811"/>
<stop offset="1" stop-color="#0C0811" stop-opacity="0"/>
</radialGradient>
<radialGradient id="paint14_radial_28327_6347" cx="0" cy="0" r="1" gradientUnits="userSpaceOnUse" gradientTransform="translate(14.375 18.5886) rotate(-71.4409) scale(0.540006 0.9983)">
<stop stop-color="#645375"/>
<stop offset="1" stop-color="#645375" stop-opacity="0"/>
</radialGradient>
<radialGradient id="paint15_radial_28327_6347" cx="0" cy="0" r="1" gradientUnits="userSpaceOnUse" gradientTransform="translate(23.525 28.061) rotate(-68.9306) scale(14.5342 11.2298)">
<stop stop-color="#3E2454"/>
<stop offset="1" stop-color="#363439"/>
</radialGradient>
<radialGradient id="paint16_radial_28327_6347" cx="0" cy="0" r="1" gradientUnits="userSpaceOnUse" gradientTransform="translate(26.8125 20.811) rotate(99.7824) scale(5.51773 4.82506)">
<stop stop-color="#776F81"/>
<stop offset="0.929157" stop-color="#776F81" stop-opacity="0"/>
</radialGradient>
<radialGradient id="paint17_radial_28327_6347" cx="0" cy="0" r="1" gradientUnits="userSpaceOnUse" gradientTransform="translate(16.5 25.4985) rotate(-29.3766) scale(14.9068 12.9678)">
<stop offset="0.854184" stop-color="#797182" stop-opacity="0"/>
<stop offset="1" stop-color="#797182"/>
</radialGradient>
<radialGradient id="paint18_radial_28327_6347" cx="0" cy="0" r="1" gradientUnits="userSpaceOnUse" gradientTransform="translate(16.5625 22.561) rotate(1.68469) scale(4.25184 16.2044)">
<stop stop-color="#3D3C3E"/>
<stop offset="0.759723" stop-color="#3D3C3E" stop-opacity="0"/>
</radialGradient>
<radialGradient id="paint19_radial_28327_6347" cx="0" cy="0" r="1" gradientUnits="userSpaceOnUse" gradientTransform="translate(6.09906 11.3611) rotate(125.838) scale(0.693863 0.618606)">
<stop stop-color="#433437"/>
<stop offset="1" stop-color="#44313B"/>
</radialGradient>
<radialGradient id="paint20_radial_28327_6347" cx="0" cy="0" r="1" gradientUnits="userSpaceOnUse" gradientTransform="translate(5.90625 11.8228) rotate(-82.8847) scale(0.358228 0.315153)">
<stop stop-color="#482B47"/>
<stop offset="1" stop-color="#482B47" stop-opacity="0"/>
</radialGradient>
<radialGradient id="paint21_radial_28327_6347" cx="0" cy="0" r="1" gradientUnits="userSpaceOnUse" gradientTransform="translate(6.13748 11.397) rotate(137.643) scale(0.35946 0.316238)">
<stop stop-color="#5C5051"/>
<stop offset="1" stop-color="#5C5051" stop-opacity="0"/>
</radialGradient>
<linearGradient id="paint22_linear_28327_6347" x1="5.85233" y1="11.1292" x2="5.50858" y2="10.9105" gradientUnits="userSpaceOnUse">
<stop stop-color="#5C5051" stop-opacity="0"/>
<stop offset="1" stop-color="#5C5051"/>
</linearGradient>
<linearGradient id="paint23_linear_28327_6347" x1="12.2029" y1="21.8631" x2="7.01409" y2="22.2319" gradientUnits="userSpaceOnUse">
<stop stop-color="#4A454F" stop-opacity="0"/>
<stop offset="0.1826" stop-color="#4A454F"/>
<stop offset="1" stop-color="#5F4677"/>
</linearGradient>
<linearGradient id="paint24_linear_28327_6347" x1="15.1718" y1="19.811" x2="14.042" y2="19.9594" gradientUnits="userSpaceOnUse">
<stop stop-color="#4A454F" stop-opacity="0"/>
<stop offset="0.1826" stop-color="#4A454F"/>
<stop offset="1" stop-color="#5F4677"/>
</linearGradient>
</defs>
</svg>

<svg width="100%" height="100%" viewBox="0 0 32 32" xmlns="http://www.w3.org/2000/svg"><path stroke="url(#a)" stroke-linecap="round" stroke-linejoin="round" stroke-miterlimit="10" d="M15.08 15.568v13.49"/><path stroke="url(#b)" stroke-linecap="round" stroke-linejoin="round" stroke-miterlimit="10" d="M15.53 15.568 7.1 29.058"/><path stroke="url(#c)" stroke-linecap="round" stroke-linejoin="round" stroke-miterlimit="10" d="M2 20.068c1.79-1.79 5.29-1.79 7.09 0l6.94-4.96"/><g filter="url(#d)"><path stroke="url(#e)" stroke-linecap="round" stroke-linejoin="round" stroke-miterlimit="10" stroke-width=".25" d="M2 20.068c1.79-1.79 5.29-1.79 7.09 0l6.94-4.96"/></g><path stroke="url(#f)" stroke-linecap="round" stroke-linejoin="round" stroke-miterlimit="10" d="M8.11 8.109c0-3.38-2.73-6.11-6.11-6.11"/><g filter="url(#g)"><path stroke="#6E6279" stroke-linecap="round" stroke-linejoin="round" stroke-miterlimit="10" stroke-width=".15" d="M8.22 8.109c0-3.38-2.68-6.126-6.118-6.228"/></g><path fill="url(#h)" d="M13.56 13.059c0 3.04-2.46 3.5-5.5 3.5s-5.5-.46-5.5-3.5 2.46-5.5 5.5-5.5 5.5 2.46 5.5 5.5"/><path fill="url(#i)" d="M13.56 13.059c0 3.04-2.46 3.5-5.5 3.5s-5.5-.46-5.5-3.5 2.46-5.5 5.5-5.5 5.5 2.46 5.5 5.5"/><path fill="url(#j)" d="M13.56 13.059c0 3.04-2.46 3.5-5.5 3.5s-5.5-.46-5.5-3.5 2.46-5.5 5.5-5.5 5.5 2.46 5.5 5.5"/><path fill="url(#k)" d="M13.56 13.059c0 3.04-2.46 3.5-5.5 3.5s-5.5-.46-5.5-3.5 2.46-5.5 5.5-5.5 5.5 2.46 5.5 5.5"/><path fill="url(#l)" d="M13.56 13.059c0 3.04-2.46 3.5-5.5 3.5s-5.5-.46-5.5-3.5 2.46-5.5 5.5-5.5 5.5 2.46 5.5 5.5"/><path fill="url(#m)" d="M15.53 18.589a3.02 3.02 0 1 0 0-6.04 3.02 3.02 0 0 0 0 6.04"/><path fill="url(#n)" d="M15.53 18.589a3.02 3.02 0 1 0 0-6.04 3.02 3.02 0 0 0 0 6.04"/><path fill="url(#o)" d="M15.53 18.589a3.02 3.02 0 1 0 0-6.04 3.02 3.02 0 0 0 0 6.04"/><path fill="url(#p)" d="M15.53 18.589a3.02 3.02 0 1 0 0-6.04 3.02 3.02 0 0 0 0 6.04"/><path fill="url(#q)" d="M15.53 18.589a3.02 3.02 0 1 0 0-6.04 3.02 3.02 0 0 0 0 6.04"/><path fill="url(#r)" d="M21.96 29.559c-4.16 0-4.4-3.37-4.4-7.53s.24-7.53 4.4-7.53 7.53 3.37 7.53 7.53-3.37 7.53-7.53 7.53"/><path fill="url(#s)" d="M21.96 29.559c-4.16 0-4.4-3.37-4.4-7.53s.24-7.53 4.4-7.53 7.53 3.37 7.53 7.53-3.37 7.53-7.53 7.53"/><path fill="url(#t)" d="M21.96 29.559c-4.16 0-4.4-3.37-4.4-7.53s.24-7.53 4.4-7.53 7.53 3.37 7.53 7.53-3.37 7.53-7.53 7.53"/><path fill="url(#u)" d="M21.96 29.559c-4.16 0-4.4-3.37-4.4-7.53s.24-7.53 4.4-7.53 7.53 3.37 7.53 7.53-3.37 7.53-7.53 7.53"/><g filter="url(#v)"><circle cx="5.951" cy="11.691" r=".571" fill="#2E2239"/></g><circle cx="5.951" cy="11.522" r=".5" fill="url(#w)"/><circle cx="5.951" cy="11.522" r=".5" fill="url(#x)"/><circle cx="5.951" cy="11.522" r=".5" fill="url(#y)"/><circle cx="5.951" cy="11.522" r=".5" fill="url(#z)"/><g filter="url(#A)"><path stroke="url(#B)" stroke-linecap="round" stroke-linejoin="round" stroke-miterlimit="10" stroke-width=".25" d="M13.781 18.467 7.156 28.936"/></g><g filter="url(#C)"><path stroke="url(#D)" stroke-linecap="round" stroke-linejoin="round" stroke-miterlimit="10" stroke-width=".25" d="M15.125 19.53v9.343"/></g><defs><radialGradient id="h" cx="0" cy="0" r="1" gradientTransform="matrix(0 -7.43506 7.19 0 8.06 16.559)" gradientUnits="userSpaceOnUse"><stop stop-color="#37214A"/><stop offset="1" stop-color="#35303C"/></radialGradient><radialGradient id="i" cx="0" cy="0" r="1" gradientTransform="matrix(3.28125 1.84375 -2.61817 4.65946 2.219 10.592)" gradientUnits="userSpaceOnUse"><stop stop-color="#5B595E"/><stop offset="1" stop-color="#5B595E" stop-opacity="0"/></radialGradient><radialGradient id="j" cx="0" cy="0" r="1" gradientTransform="matrix(-4.59375 0 0 -2.875 11.969 11.373)" gradientUnits="userSpaceOnUse"><stop stop-color="#726D78"/><stop offset="1" stop-color="#726D78" stop-opacity="0"/></radialGradient><radialGradient id="k" cx="0" cy="0" r="1" gradientTransform="rotate(-157.834 8.149 6.19)scale(1.82217 2.40902)" gradientUnits="userSpaceOnUse"><stop stop-color="#0C0811"/><stop offset="1" stop-color="#0C0811" stop-opacity="0"/></radialGradient><radialGradient id="l" cx="0" cy="0" r="1" gradientTransform="matrix(-2.92186 2.09377 -.81648 -1.1394 9.375 6.217)" gradientUnits="userSpaceOnUse"><stop stop-color="#5C5564"/><stop offset="1" stop-color="#5C5564" stop-opacity="0"/></radialGradient><radialGradient id="m" cx="0" cy="0" r="1" gradientTransform="matrix(1.34375 -5.0625 4.18965 1.11207 15 17.967)" gradientUnits="userSpaceOnUse"><stop offset=".006" stop-color="#351F47"/><stop offset="1" stop-color="#3B3442"/></radialGradient><radialGradient id="n" cx="0" cy="0" r="1" gradientTransform="rotate(150.994 6.663 9.783)scale(1.80447 1.81191)" gradientUnits="userSpaceOnUse"><stop stop-color="#766F7E"/><stop offset="1" stop-color="#766F7E" stop-opacity="0"/></radialGradient><radialGradient id="o" cx="0" cy="0" r="1" gradientTransform="matrix(1.01563 2.96875 -1.37248 .46953 12.719 13.53)" gradientUnits="userSpaceOnUse"><stop stop-color="#39363E"/><stop offset="1" stop-color="#39363E" stop-opacity="0"/></radialGradient><radialGradient id="p" cx="0" cy="0" r="1" gradientTransform="rotate(-168.19 10.297 7.644)scale(1.75592 2.14147)" gradientUnits="userSpaceOnUse"><stop stop-color="#0C0811"/><stop offset="1" stop-color="#0C0811" stop-opacity="0"/></radialGradient><radialGradient id="q" cx="0" cy="0" r="1" gradientTransform="rotate(-71.441 20.112 -.7)scale(.54001 .99829)" gradientUnits="userSpaceOnUse"><stop stop-color="#645375"/><stop offset="1" stop-color="#645375" stop-opacity="0"/></radialGradient><radialGradient id="r" cx="0" cy="0" r="1" gradientTransform="matrix(5.22502 -13.56253 10.47904 4.0371 23.525 28.061)" gradientUnits="userSpaceOnUse"><stop stop-color="#3E2454"/><stop offset="1" stop-color="#363439"/></radialGradient><radialGradient id="s" cx="0" cy="0" r="1" gradientTransform="rotate(99.782 4.641 21.698)scale(5.51773 4.82506)" gradientUnits="userSpaceOnUse"><stop stop-color="#776F81"/><stop offset=".929" stop-color="#776F81" stop-opacity="0"/></radialGradient><radialGradient id="t" cx="0" cy="0" r="1" gradientTransform="matrix(12.99 -7.3125 6.36133 11.30033 16.5 25.498)" gradientUnits="userSpaceOnUse"><stop offset=".854" stop-color="#797182" stop-opacity="0"/><stop offset="1" stop-color="#797182"/></radialGradient><radialGradient id="u" cx="0" cy="0" r="1" gradientTransform="matrix(4.25 .125 -.4764 16.1974 16.563 22.561)" gradientUnits="userSpaceOnUse"><stop stop-color="#3D3C3E"/><stop offset=".76" stop-color="#3D3C3E" stop-opacity="0"/></radialGradient><radialGradient id="w" cx="0" cy="0" r="1" gradientTransform="rotate(125.838 .145 7.24)scale(.69386 .61861)" gradientUnits="userSpaceOnUse"><stop stop-color="#433437"/><stop offset="1" stop-color="#44313B"/></radialGradient><radialGradient id="x" cx="0" cy="0" r="1" gradientTransform="rotate(-82.885 9.648 2.567)scale(.35823 .31515)" gradientUnits="userSpaceOnUse"><stop stop-color="#482B47"/><stop offset="1" stop-color="#482B47" stop-opacity="0"/></radialGradient><radialGradient id="y" cx="0" cy="0" r="1" gradientTransform="rotate(137.643 .86 6.887)scale(.35946 .31624)" gradientUnits="userSpaceOnUse"><stop stop-color="#5C5051"/><stop offset="1" stop-color="#5C5051" stop-opacity="0"/></radialGradient><linearGradient id="a" x1="15.594" x2="15.594" y1="28.655" y2="19.467" gradientUnits="userSpaceOnUse"><stop offset=".006" stop-color="#513468"/><stop offset="1" stop-color="#1C1C1C"/></linearGradient><linearGradient id="b" x1="6.598" x2="16.027" y1="22.316" y2="22.316" gradientUnits="userSpaceOnUse"><stop offset=".006" stop-color="#513468"/><stop offset="1" stop-color="#1C1C1C"/></linearGradient><linearGradient id="c" x1="1.5" x2="16.524" y1="17.591" y2="17.591" gradientUnits="userSpaceOnUse"><stop offset=".006" stop-color="#513468"/><stop offset="1" stop-color="#1C1C1C"/></linearGradient><linearGradient id="e" x1="12.688" x2="2.656" y1="16.717" y2="19.905" gradientUnits="userSpaceOnUse"><stop stop-color="#4A454F" stop-opacity="0"/><stop offset=".183" stop-color="#4A454F"/><stop offset="1" stop-color="#544067"/></linearGradient><linearGradient id="f" x1="7.813" x2="2" y1="7.78" y2="1.655" gradientUnits="userSpaceOnUse"><stop offset=".006" stop-color="#433453"/><stop offset="1" stop-color="#2F2E30"/></linearGradient><linearGradient id="z" x1="5.852" x2="5.509" y1="11.129" y2="10.911" gradientUnits="userSpaceOnUse"><stop stop-color="#5C5051" stop-opacity="0"/><stop offset="1" stop-color="#5C5051"/></linearGradient><linearGradient id="B" x1="12.203" x2="7.014" y1="21.863" y2="22.232" gradientUnits="userSpaceOnUse"><stop stop-color="#4A454F" stop-opacity="0"/><stop offset=".183" stop-color="#4A454F"/><stop offset="1" stop-color="#5F4677"/></linearGradient><linearGradient id="D" x1="15.172" x2="14.042" y1="19.811" y2="19.959" gradientUnits="userSpaceOnUse"><stop stop-color="#4A454F" stop-opacity="0"/><stop offset=".183" stop-color="#4A454F"/><stop offset="1" stop-color="#5F4677"/></linearGradient><filter id="d" width="14.78" height="5.71" x="1.625" y="14.733" color-interpolation-filters="sRGB" filterUnits="userSpaceOnUse"><feFlood flood-opacity="0" result="BackgroundImageFix"/><feBlend in="SourceGraphic" in2="BackgroundImageFix" result="shape"/><feGaussianBlur result="effect1_foregroundBlur_28327_6347" stdDeviation=".125"/></filter><filter id="g" width="6.868" height="6.977" x="1.727" y="1.506" color-interpolation-filters="sRGB" filterUnits="userSpaceOnUse"><feFlood flood-opacity="0" result="BackgroundImageFix"/><feBlend in="SourceGraphic" in2="BackgroundImageFix" result="shape"/><feGaussianBlur result="effect1_foregroundBlur_28327_6347" stdDeviation=".15"/></filter><filter id="v" width="1.942" height="1.942" x="4.98" y="10.72" color-interpolation-filters="sRGB" filterUnits="userSpaceOnUse"><feFlood flood-opacity="0" result="BackgroundImageFix"/><feBlend in="SourceGraphic" in2="BackgroundImageFix" result="shape"/><feGaussianBlur result="effect1_foregroundBlur_28327_6347" stdDeviation=".2"/></filter><filter id="A" width="7.375" height="11.219" x="6.781" y="18.092" color-interpolation-filters="sRGB" filterUnits="userSpaceOnUse"><feFlood flood-opacity="0" result="BackgroundImageFix"/><feBlend in="SourceGraphic" in2="BackgroundImageFix" result="shape"/><feGaussianBlur result="effect1_foregroundBlur_28327_6347" stdDeviation=".125"/></filter><filter id="C" width=".75" height="10.094" x="14.75" y="19.155" color-interpolation-filters="sRGB" filterUnits="userSpaceOnUse"><feFlood flood-opacity="0" result="BackgroundImageFix"/><feBlend in="SourceGraphic" in2="BackgroundImageFix" result="shape"/><feGaussianBlur result="effect1_foregroundBlur_28327_6347" stdDeviation=".125"/></filter></defs></svg>
